X:1
T:Title
%%score { ( 1 3 ) | 2 }
L:1/8
M:4/4
K:Db
V:1 treble nm="Grand Piano"
V:3 treble 
V:2 bass 
V:1
 z4 z2 z[Q:1/4=100] A | A2 F2 [CE]2 D2 | [CA]3 [CE] [CE]3 [CG] | [CG]2 [CE]2 [A,C]2 [CB]2 | %4
[M:7/8] A3 F F3 |[M:1/8] A |[M:4/4] A2 F2 [CE]2 D2 | [Ec]3 [DB] [DB]3 [DB] | %8
 [DA]2 [DF]2 [CE] [DF]3 | [A,D]6 z2 |[M:6/8] .[Fd]6 | [EAc]/[EAc]/- [EAc]2 [CEG]3 | .[Gc]6 | %13
 [DGB]/[DGB]/- [DGB]2 [A,DF]3 | [A,DF][A,CE][A,DF] [CEG]>[CEG][CEG] | %15
 [CEG][_C=DF][=CEG] [_DFA]>[DFA][DFA] | %16
 [DGB][CG=A][DGB] [EGc]/[EGc]/- [EGc]2[Q:1/4=97][Q:1/4=94][Q:1/4=91][Q:1/4=88][Q:1/4=84][Q:1/4=81][Q:1/4=78] | %17
 [CGB]2 [EGc] [DFd]3 |] %18
V:2
 z4 z2 z [D,F,D] | [D,F,D]2 [D,A,D]2 [A,,G,]2 [D,F,]2 | [A,,G,]3 [A,,G,] [A,,G,]3 [A,,E,] | %3
 [A,,A,]2 [A,,G,]2 [A,,E,]2 [A,,G,]2 |[M:7/8] [D,F,D]3 [D,A,D] [D,A,D]3 |[M:1/8] [D,F,D] | %6
[M:4/4] [D,F,D]2 [D,A,D]2 [A,,G,]2 [B,,F,]2 | [G,,G,]3 [G,,G,] [G,,G,]3 [G,,G,] | %8
 [A,,F,]2 [A,,A,]2 [A,,G,] [A,,A,]3 | [D,F,]6 z2 |[M:6/8] [D,A,]D,D, D,[D,B,]A, | %11
 A,,/A,,/- A,,2 A,,3 | A,,A,,A,, A,,A,,A,, | D,/D,/- D,2 D,3 | D,E,D, A,,>A,,A,, | %15
 A,,A,,A,, D,>D,D, | G,G,G, A,,/A,,/- A,,2 | A,,2 A,, D,3 |] %18
V:3
 x8 | x8 | x8 | x8 |[M:7/8] x7 |[M:1/8] x |[M:4/4] x8 | x8 | x8 | x8 |[M:6/8] z A,A, A,[Ac][CGB] | %11
 x6 | EEE E[CGB][CGA] | x6 | x6 | x6 | x6 | x6 |] %18

